public/img/svg/youGet-3.svg

<svg fill="none" height="147" viewBox="0 0 147 147" width="147" xmlns="http://www.w3.org/2000/svg"><path d="m19.3484 73.1484h16.7262v60.2696h-16.7262z" fill="#fe7058"/><path d="m78.3669 93.1326h16.7064v40.2864h-16.7064z" fill="#27ccbc"/><path d="m48.8477 44.6821h16.7262v88.7359h-16.7262z" fill="#89c5cd"/><path d="m107.866 69.2947h16.726v64.1233h-16.726z" fill="#fcd462"/><path d="m30.115 73.1423h5.9594v60.2697h-5.9594z" fill="#ea6453"/><path d="m89.1138 93.1265h5.9594v40.2855h-5.9594z" fill="#21b3a9"/><path d="m59.6145 44.676h5.9595v88.736h-5.9595z" fill="#6eaaad"/><path d="m118.633 69.2888h5.96v64.1242h-5.96z" fill="#f7be56"/><path d="m100.876 6.09863c-21.337 0-38.6333 19.63247-38.6333 19.63247s17.2963 19.6324 38.6333 19.6324 38.633-19.6324 38.633-19.6324-17.296-19.63247-38.633-19.63247z" fill="#e1e6e9"/><path d="m139.511 25.7251s-17.302 19.6265-38.637 19.6265c-21.3351 0-38.6374-19.6265-38.6374-19.6265l.0397-.0397c6.0191 5.6217 19.547 16.2891 35.28 16.2891 20.7387 0 37.6437-18.5339 38.5977-19.6066 2.165 2.0064 3.357 3.3572 3.357 3.3572z" fill="#d5d6db"/><path d="m100.268 45.3573c-3.8823 0-7.6772-1.1512-10.9051-3.308s-5.7437-5.2223-7.2294-8.809c-1.4856-3.5866-1.8743-7.5332-1.1169-11.3408.7573-3.8076 2.6268-7.305 5.3719-10.0501 2.7451-2.74509 6.2425-4.61452 10.0501-5.37189 3.8074-.75737 7.7544-.36866 11.3404 1.11697 3.587 1.48563 6.653 4.00142 8.809 7.22932 2.157 3.2279 3.308 7.0229 3.308 10.905-.005 5.204-2.075 10.1933-5.755 13.8731s-8.669 5.7496-13.873 5.7554z" fill="#fcd462"/><path d="m119.904 25.7251c.001 2.8753-.633 5.7153-1.855 8.3179-1.223 2.6026-3.004 4.9037-5.217 6.7397 2.881-3.8505 4.247-8.6252 3.839-13.4167-.409-4.7916-2.563-9.2661-6.054-12.5734-3.491-3.3072-8.076-5.21671-12.8825-5.36561-4.8066-.14891-9.5004 1.47311-13.1896 4.55801 2.467-3.3037 5.9116-5.74679 9.8452-6.98262s8.1569-1.20171 12.0699.09753 7.317 3.79759 9.731 7.14079c2.413 3.3431 3.712 7.3612 3.713 11.4844z" fill="#f7be56"/><g fill="#323c6b"><path d="m99.2389 36.6824v-1.5892c-1.6364-.0027-3.2397-.4608-4.6305-1.323l.7251-2.0282c1.2978.8428 2.8108 1.2945 4.3583 1.3011 2.1492 0 3.6012-1.2415 3.6012-2.9658 0-1.6647-1.18-2.6937-3.4204-3.6015-3.087-1.2098-4.994-2.6023-4.994-5.2364.0187-1.2353.4973-2.4192 1.3421-3.3206s1.9953-1.4555 3.2268-1.5542v-1.5892h1.8755v1.464c1.381.0112 2.736.3765 3.935 1.0608l-.757 1.9984c-1.153-.6863-2.472-1.0423-3.814-1.029-2.3321 0-3.2081 1.3906-3.2081 2.6023 0 1.5733 1.1203 2.362 3.7541 3.4505 3.119 1.2714 4.692 2.8447 4.692 5.5404-.023 1.2963-.525 2.5382-1.407 3.4879-.883.9497-2.085 1.5404-3.376 1.659v1.6766z"/><path d="m13.389 82.6258c-.2634 0-.5161-.1047-.7023-.2909-.1863-.1863-.2909-.4389-.2909-.7024v-.6197c0-.2635.1046-.5161.2909-.7024.1862-.1862.4389-.2909.7023-.2909s.5161.1047.7023.2909c.1863.1863.2909.4389.2909.7024v.6217c-.0005.2631-.1054.5152-.2916.7011-.1862.1858-.4385.2902-.7016.2902z"/><path d="m13.389 77.5344c-.2634 0-.5161-.1046-.7023-.2909-.1863-.1863-.2909-.4389-.2909-.7023v-9.3524c0-.2634.1046-.5161.2909-.7023.1862-.1863.4389-.2909.7023-.2909h6.9726c.2634 0 .516.1046.7023.2909.1863.1862.2909.4389.2909.7023s-.1046.5161-.2909.7023c-.1863.1863-.4389.2909-.7023.2909h-5.9794v8.3592c0 .2634-.1046.516-.2909.7023-.1862.1863-.4389.2909-.7023.2909z"/><path d="m121.672 6.18383c-.148.00004-.295-.03322-.429-.09734-.475-.22844-.965-.44298-1.452-.65951l.226-.99324.398-.90981c.681.29797 1.192.52244 1.684.75883.203.09725.368.26065.466.46342.098.20276.124.43284.074.65248s-.173.41581-.349.55631c-.176.14051-.395.217-.62.21694z"/><path d="m139.716 18.5337c-.245-.0016-.481-.0936-.662-.2583-3.916-3.5861-8.187-6.7656-12.745-9.48941-.116-.06448-.218-.15148-.299-.25586-.082-.10438-.142-.22404-.177-.35193-.034-.12789-.043-.26143-.025-.39275.017-.13131.061-.25776.129-.37188.067-.11412.156-.21362.263-.29263.106-.07901.227-.13594.356-.16743.129-.0315.262-.03691.393-.01594s.256.06791.369.13806c4.678 2.79376 9.06 6.05507 13.079 9.73377.148.1352.251.3119.297.507.045.1951.031.3994-.042.5861-.072.1867-.2.3471-.365.4601s-.361.1733-.562.1731z"/><path d="m100.876 46.3527c-21.5397 0-38.6612-19.1518-39.3783-19.9682-.1598-.1814-.2479-.4148-.2479-.6565 0-.2418.0881-.4752.2479-.6566.7171-.8164 17.8386-19.96813 39.3783-19.96813 21.539 0 38.659 19.15373 39.37 19.97013.16.1814.248.4148.248.6566 0 .2417-.088.4751-.248.6565-.711.8144-17.833 19.9662-39.37 19.9662zm-37.2766-20.6237c3.232 3.377 18.8398 18.6372 37.2786 18.6372 18.438 0 34.046-15.2562 37.276-18.6372-3.232-3.3771-18.84-18.63924-37.276-18.63924-18.4368 0-34.0486 15.25824-37.2786 18.63924z"/><path d="m100.268 46.3506c-4.0786 0-8.0656-1.2094-11.4568-3.4754-3.3913-2.2659-6.0344-5.4866-7.5952-9.2547s-1.9692-7.9145-1.1735-11.9147 2.7597-7.6747 5.6437-10.5587c2.884-2.88395 6.5584-4.84798 10.5587-5.64367 4.0001-.7957 8.1461-.38732 11.9151 1.17349 3.768 1.56081 6.988 4.20398 9.254 7.59518s3.476 7.3782 3.476 11.4568c-.007 5.4673-2.181 10.7088-6.047 14.5748-3.866 3.8659-9.108 6.0406-14.575 6.0469zm0-39.25891c-3.6857.00039-7.2884 1.09366-10.3527 3.14161-3.0643 2.0479-5.4525 4.9584-6.8626 8.3636-1.4102 3.4052-1.7789 7.152-1.0597 10.7668.7193 3.6147 2.4943 6.935 5.1006 9.541 2.6062 2.606 5.9267 4.3806 9.5415 5.0995 3.6149.7189 7.3619.3498 10.7669-1.0608 3.405-1.4105 6.315-3.799 8.363-6.8635 2.047-3.0645 3.14-6.6674 3.14-10.353-.006-4.9406-1.972-9.677-5.466-13.1701-3.494-3.49317-8.23-5.45787-13.171-5.46313z"/><path d="m36.0747 134.414h-16.7262c-.2635 0-.5161-.105-.7024-.291-.1862-.187-.2909-.439-.2909-.703v-60.2717c0-.2635.1047-.5161.2909-.7024.1863-.1862.4389-.2909.7024-.2909h16.7262c.2634 0 .516.1047.7023.2909.1863.1863.2909.4389.2909.7024v60.2697c.0003.131-.0252.26-.075.381s-.1229.23-.2152.323c-.0922.092-.2018.166-.3225.216-.1206.05-.2499.076-.3805.076zm-15.733-1.987h14.7397v-58.2855h-14.7397z"/><path d="m95.0734 134.414h-16.7064c-.2634 0-.516-.105-.7023-.291-.1863-.187-.2909-.439-.2909-.703v-40.2876c0-.2634.1046-.5161.2909-.7023.1863-.1863.4389-.2909.7023-.2909h16.7064c.2634 0 .516.1046.7023.2909.1863.1862.2909.4389.2909.7023v40.2856c.0003.131-.0252.26-.075.381s-.1229.231-.2152.323-.2018.166-.3225.216c-.1206.05-.2499.076-.3805.076zm-15.7131-1.987h14.7198v-38.3014h-14.7198z"/><path d="m65.5739 134.414h-16.7262c-.2634 0-.516-.105-.7023-.291-.1863-.187-.2909-.439-.2909-.703v-88.7361c0-.2634.1046-.516.2909-.7023s.4389-.2909.7023-.2909h16.7262c.2635 0 .5161.1046.7024.2909.1862.1863.2909.4389.2909.7023v88.7361c0 .264-.1047.516-.2909.703-.1863.186-.4389.291-.7024.291zm-15.7329-1.987h14.7397v-86.7498h-14.7397z"/><path d="m124.593 134.414h-16.727c-.263 0-.516-.105-.702-.291-.186-.187-.291-.439-.291-.703v-64.1255c0-.2634.105-.516.291-.7023s.439-.2909.702-.2909h16.727c.263 0 .516.1046.702.2909s.291.4389.291.7023v64.1235c0 .131-.025.26-.075.381s-.123.23-.215.323c-.093.092-.202.166-.323.216s-.25.076-.38.076zm-15.733-1.987h14.739v-62.1392h-14.739z"/></g><path d="m8.93921 132.35h126.06279v8.691h-126.06279z" fill="#84879c"/><path d="m135.001 142.034h-126.06196c-.26342 0-.51606-.105-.70232-.291-.18627-.186-.29092-.439-.29092-.702v-8.691c0-.264.10465-.516.29092-.703.18626-.186.4389-.291.70232-.291h126.06196c.264 0 .517.105.703.291.186.187.291.439.291.703v8.691c0 .263-.105.516-.291.702s-.439.291-.703.291zm-125.06871-1.987h124.07571v-6.704h-124.07571z" fill="#323c6b"/><path d="m112.981 108.86c-.342 0-.67-.136-.913-.379-.242-.242-.378-.57-.378-.913v-1.225c0-.343.136-.671.378-.913.243-.242.571-.378.913-.378.343 0 .671.136.913.378.243.242.379.57.379.913v1.225c0 .343-.136.671-.379.913-.242.243-.57.379-.913.379z" fill="#fff"/><path d="m112.981 102.642c-.342 0-.67-.136-.913-.378-.242-.242-.378-.571-.378-.913v-16.1306c0-.3424.136-.6709.378-.913.243-.2422.571-.3782.913-.3782.343 0 .671.136.913.3782.243.2421.379.5706.379.913v16.1306c0 .342-.136.671-.379.913-.242.242-.57.378-.913.378z" fill="#fff"/></svg>

<svg width="147" height="147" viewBox="0 0 147 147" fill="none" xmlns="http://www.w3.org/2000/svg">
<path d="M19.3484 73.1484H36.0746V133.418H19.3484V73.1484Z" fill="#FE7058"/>
<path d="M78.3669 93.1326H95.0733V133.419H78.3669V93.1326Z" fill="#27CCBC"/>
<path d="M48.8477 44.6821H65.5739V133.418H48.8477V44.6821Z" fill="#89C5CD"/>
<path d="M107.866 69.2947H124.592V133.418H107.866V69.2947Z" fill="#FCD462"/>
<path d="M30.115 73.1423H36.0744V133.412H30.115V73.1423Z" fill="#EA6453"/>
<path d="M89.1138 93.1265H95.0732V133.412H89.1138V93.1265Z" fill="#21B3A9"/>
<path d="M59.6145 44.676H65.574V133.412H59.6145V44.676Z" fill="#6EAAAD"/>
<path d="M118.633 69.2888H124.593V133.413H118.633V69.2888Z" fill="#F7BE56"/>
<path d="M100.876 6.09863C79.539 6.09863 62.2427 25.7311 62.2427 25.7311C62.2427 25.7311 79.539 45.3635 100.876 45.3635C122.213 45.3635 139.509 25.7311 139.509 25.7311C139.509 25.7311 122.213 6.09863 100.876 6.09863Z" fill="#E1E6E9"/>
<path d="M139.511 25.7251C139.511 25.7251 122.209 45.3516 100.874 45.3516C79.5389 45.3516 62.2366 25.7251 62.2366 25.7251L62.2763 25.6854C68.2954 31.3071 81.8233 41.9745 97.5563 41.9745C118.295 41.9745 135.2 23.4406 136.154 22.3679C138.319 24.3743 139.511 25.7251 139.511 25.7251Z" fill="#D5D6DB"/>
<path d="M100.268 45.3573C96.3857 45.3573 92.5908 44.2061 89.3629 42.0493C86.135 39.8925 83.6192 36.827 82.1335 33.2403C80.6479 29.6537 80.2592 25.7071 81.0166 21.8995C81.7739 18.0919 83.6434 14.5945 86.3885 11.8494C89.1336 9.10431 92.631 7.23488 96.4386 6.47751C100.246 5.72014 104.193 6.10885 107.779 7.59448C111.366 9.08011 114.432 11.5959 116.588 14.8238C118.745 18.0517 119.896 21.8467 119.896 25.7288C119.891 30.9328 117.821 35.9221 114.141 39.6019C110.461 43.2817 105.472 45.3515 100.268 45.3573Z" fill="#FCD462"/>
<path d="M119.904 25.7251C119.905 28.6004 119.271 31.4404 118.049 34.043C116.826 36.6456 115.045 38.9467 112.832 40.7827C115.713 36.9322 117.079 32.1575 116.671 27.366C116.262 22.5744 114.108 18.0999 110.617 14.7926C107.126 11.4854 102.541 9.57589 97.7345 9.42699C92.9279 9.27808 88.2341 10.9001 84.5449 13.985C87.0119 10.6813 90.4565 8.23821 94.3901 7.00238C98.3237 5.76655 102.547 5.80067 106.46 7.09991C110.373 8.39915 113.777 10.8975 116.191 14.2407C118.604 17.5838 119.903 21.6019 119.904 25.7251Z" fill="#F7BE56"/>
<path d="M99.2389 36.6824V35.0932C97.6025 35.0905 95.9992 34.6324 94.6084 33.7702L95.3335 31.742C96.6313 32.5848 98.1443 33.0365 99.6918 33.0431C101.841 33.0431 103.293 31.8016 103.293 30.0773C103.293 28.4126 102.113 27.3836 99.8726 26.4758C96.7856 25.266 94.8786 23.8735 94.8786 21.2394C94.8973 20.0041 95.3759 18.8202 96.2207 17.9188C97.0655 17.0174 98.216 16.4633 99.4475 16.3646V14.7754H101.323V16.2394C102.704 16.2506 104.059 16.6159 105.258 17.3002L104.501 19.2986C103.348 18.6123 102.029 18.2563 100.687 18.2696C98.3549 18.2696 97.4789 19.6602 97.4789 20.8719C97.4789 22.4452 98.5992 23.2339 101.233 24.3224C104.352 25.5938 105.925 27.1671 105.925 29.8628C105.902 31.1591 105.4 32.401 104.518 33.3507C103.635 34.3004 102.433 34.8911 101.142 35.0097V36.6863L99.2389 36.6824Z" fill="#323C6B"/>
<path d="M13.389 82.6258C13.1256 82.6258 12.8729 82.5211 12.6867 82.3349C12.5004 82.1486 12.3958 81.896 12.3958 81.6325V81.0128C12.3958 80.7493 12.5004 80.4967 12.6867 80.3104C12.8729 80.1242 13.1256 80.0195 13.389 80.0195C13.6524 80.0195 13.9051 80.1242 14.0913 80.3104C14.2776 80.4967 14.3822 80.7493 14.3822 81.0128V81.6345C14.3817 81.8976 14.2768 82.1497 14.0906 82.3356C13.9044 82.5214 13.6521 82.6258 13.389 82.6258Z" fill="#323C6B"/>
<path d="M13.389 77.5344C13.1256 77.5344 12.8729 77.4298 12.6867 77.2435C12.5004 77.0572 12.3958 76.8046 12.3958 76.5412V67.1888C12.3958 66.9254 12.5004 66.6727 12.6867 66.4865C12.8729 66.3002 13.1256 66.1956 13.389 66.1956H20.3616C20.625 66.1956 20.8776 66.3002 21.0639 66.4865C21.2502 66.6727 21.3548 66.9254 21.3548 67.1888C21.3548 67.4522 21.2502 67.7049 21.0639 67.8911C20.8776 68.0774 20.625 68.182 20.3616 68.182H14.3822V76.5412C14.3822 76.8046 14.2776 77.0572 14.0913 77.2435C13.9051 77.4298 13.6524 77.5344 13.389 77.5344Z" fill="#323C6B"/>
<path d="M121.672 6.18383C121.524 6.18387 121.377 6.15061 121.243 6.08649C120.768 5.85805 120.278 5.64351 119.791 5.42698L120.017 4.43374L120.415 3.52393C121.096 3.8219 121.607 4.04637 122.099 4.28276C122.302 4.38001 122.467 4.54341 122.565 4.74618C122.663 4.94894 122.689 5.17902 122.639 5.39866C122.589 5.6183 122.466 5.81447 122.29 5.95497C122.114 6.09548 121.895 6.17197 121.67 6.17191L121.672 6.18383Z" fill="#323C6B"/>
<path d="M139.716 18.5337C139.471 18.5321 139.235 18.4401 139.054 18.2754C135.138 14.6893 130.867 11.5098 126.309 8.78599C126.193 8.72151 126.091 8.63451 126.01 8.53013C125.928 8.42575 125.868 8.30609 125.833 8.1782C125.799 8.05031 125.79 7.91677 125.808 7.78545C125.825 7.65414 125.869 7.52769 125.937 7.41357C126.004 7.29945 126.093 7.19995 126.2 7.12094C126.306 7.04193 126.427 6.985 126.556 6.95351C126.685 6.92201 126.818 6.9166 126.949 6.93757C127.08 6.95854 127.205 7.00548 127.318 7.07563C131.996 9.86939 136.378 13.1307 140.397 16.8094C140.545 16.9446 140.648 17.1213 140.694 17.3164C140.739 17.5115 140.725 17.7158 140.652 17.9025C140.58 18.0892 140.452 18.2496 140.287 18.3626C140.122 18.4756 139.926 18.5359 139.725 18.5357L139.716 18.5337Z" fill="#323C6B"/>
<path d="M100.876 46.3527C79.3363 46.3527 62.2148 27.2009 61.4977 26.3845C61.3379 26.2031 61.2498 25.9697 61.2498 25.728C61.2498 25.4862 61.3379 25.2528 61.4977 25.0714C62.2148 24.255 79.3363 5.10327 100.876 5.10327C122.415 5.10327 139.535 24.257 140.246 25.0734C140.406 25.2548 140.494 25.4882 140.494 25.73C140.494 25.9717 140.406 26.2051 140.246 26.3865C139.535 27.2009 122.413 46.3527 100.876 46.3527ZM63.5994 25.729C66.8314 29.106 82.4392 44.3662 100.878 44.3662C119.316 44.3662 134.924 29.11 138.154 25.729C134.922 22.3519 119.314 7.08976 100.878 7.08976C82.4412 7.08976 66.8294 22.348 63.5994 25.729Z" fill="#323C6B"/>
<path d="M100.268 46.3506C96.1894 46.3506 92.2024 45.1412 88.8112 42.8752C85.4199 40.6093 82.7768 37.3886 81.216 33.6205C79.6552 29.8524 79.2468 25.706 80.0425 21.7058C80.8382 17.7056 82.8022 14.0311 85.6862 11.1471C88.5702 8.26315 92.2446 6.29912 96.2449 5.50343C100.245 4.70773 104.391 5.11611 108.16 6.67692C111.928 8.23773 115.148 10.8809 117.414 14.2721C119.68 17.6633 120.89 21.6503 120.89 25.7289C120.883 31.1962 118.709 36.4377 114.843 40.3037C110.977 44.1696 105.735 46.3443 100.268 46.3506ZM100.268 7.09169C96.5823 7.09208 92.9796 8.18535 89.9153 10.2333C86.851 12.2812 84.4628 15.1917 83.0527 18.5969C81.6425 22.0021 81.2738 25.7489 81.993 29.3637C82.7123 32.9784 84.4873 36.2987 87.0936 38.9047C89.6998 41.5107 93.0203 43.2853 96.6351 44.0042C100.25 44.7231 103.997 44.354 107.402 42.9434C110.807 41.5329 113.717 39.1444 115.765 36.0799C117.812 33.0154 118.905 29.4125 118.905 25.7269C118.899 20.7863 116.933 16.0499 113.439 12.5568C109.945 9.06363 105.209 7.09893 100.268 7.09367V7.09169Z" fill="#323C6B"/>
<path d="M36.0747 134.414H19.3485C19.085 134.414 18.8324 134.309 18.6461 134.123C18.4599 133.936 18.3552 133.684 18.3552 133.42V73.1483C18.3552 72.8848 18.4599 72.6322 18.6461 72.4459C18.8324 72.2597 19.085 72.155 19.3485 72.155H36.0747C36.3381 72.155 36.5907 72.2597 36.777 72.4459C36.9633 72.6322 37.0679 72.8848 37.0679 73.1483V133.418C37.0682 133.549 37.0427 133.678 36.9929 133.799C36.9431 133.92 36.87 134.029 36.7777 134.122C36.6855 134.214 36.5759 134.288 36.4552 134.338C36.3346 134.388 36.2053 134.414 36.0747 134.414ZM20.3417 132.427H35.0814V74.1415H20.3417V132.427Z" fill="#323C6B"/>
<path d="M95.0734 134.414H78.367C78.1036 134.414 77.851 134.309 77.6647 134.123C77.4784 133.936 77.3738 133.684 77.3738 133.42V93.1324C77.3738 92.869 77.4784 92.6163 77.6647 92.4301C77.851 92.2438 78.1036 92.1392 78.367 92.1392H95.0734C95.3368 92.1392 95.5894 92.2438 95.7757 92.4301C95.962 92.6163 96.0666 92.869 96.0666 93.1324V133.418C96.0669 133.549 96.0414 133.678 95.9916 133.799C95.9418 133.92 95.8687 134.03 95.7764 134.122C95.6841 134.214 95.5746 134.288 95.4539 134.338C95.3333 134.388 95.204 134.414 95.0734 134.414ZM79.3603 132.427H94.0801V94.1256H79.3603V132.427Z" fill="#323C6B"/>
<path d="M65.5739 134.414H48.8477C48.5843 134.414 48.3317 134.309 48.1454 134.123C47.9591 133.936 47.8545 133.684 47.8545 133.42V44.6839C47.8545 44.4205 47.9591 44.1679 48.1454 43.9816C48.3317 43.7953 48.5843 43.6907 48.8477 43.6907H65.5739C65.8374 43.6907 66.09 43.7953 66.2763 43.9816C66.4625 44.1679 66.5672 44.4205 66.5672 44.6839V133.42C66.5672 133.684 66.4625 133.936 66.2763 134.123C66.09 134.309 65.8374 134.414 65.5739 134.414ZM49.841 132.427H64.5807V45.6772H49.841V132.427Z" fill="#323C6B"/>
<path d="M124.593 134.414H107.866C107.603 134.414 107.35 134.309 107.164 134.123C106.978 133.936 106.873 133.684 106.873 133.42V69.2945C106.873 69.0311 106.978 68.7785 107.164 68.5922C107.35 68.4059 107.603 68.3013 107.866 68.3013H124.593C124.856 68.3013 125.109 68.4059 125.295 68.5922C125.481 68.7785 125.586 69.0311 125.586 69.2945V133.418C125.586 133.549 125.561 133.678 125.511 133.799C125.461 133.92 125.388 134.029 125.296 134.122C125.203 134.214 125.094 134.288 124.973 134.338C124.852 134.388 124.723 134.414 124.593 134.414ZM108.86 132.427H123.599V70.2878H108.86V132.427Z" fill="#323C6B"/>
<path d="M8.93921 132.35H135.002V141.041H8.93921V132.35Z" fill="#84879C"/>
<path d="M135.001 142.034H8.93904C8.67562 142.034 8.42298 141.929 8.23672 141.743C8.05045 141.557 7.9458 141.304 7.9458 141.041V132.35C7.9458 132.086 8.05045 131.834 8.23672 131.647C8.42298 131.461 8.67562 131.356 8.93904 131.356H135.001C135.265 131.356 135.518 131.461 135.704 131.647C135.89 131.834 135.995 132.086 135.995 132.35V141.041C135.995 141.304 135.89 141.557 135.704 141.743C135.518 141.929 135.265 142.034 135.001 142.034ZM9.93229 140.047H134.008V133.343H9.93229V140.047Z" fill="#323C6B"/>
<path d="M112.981 108.86C112.639 108.86 112.311 108.724 112.068 108.481C111.826 108.239 111.69 107.911 111.69 107.568V106.343C111.69 106 111.826 105.672 112.068 105.43C112.311 105.188 112.639 105.052 112.981 105.052C113.324 105.052 113.652 105.188 113.894 105.43C114.137 105.672 114.273 106 114.273 106.343V107.568C114.273 107.911 114.137 108.239 113.894 108.481C113.652 108.724 113.324 108.86 112.981 108.86Z" fill="white"/>
<path d="M112.981 102.642C112.639 102.642 112.311 102.506 112.068 102.264C111.826 102.022 111.69 101.693 111.69 101.351V85.2204C111.69 84.878 111.826 84.5495 112.068 84.3074C112.311 84.0652 112.639 83.9292 112.981 83.9292C113.324 83.9292 113.652 84.0652 113.894 84.3074C114.137 84.5495 114.273 84.878 114.273 85.2204V101.351C114.273 101.693 114.137 102.022 113.894 102.264C113.652 102.506 113.324 102.642 112.981 102.642Z" fill="white"/>
</svg>
